packages/webapp/public/images/template-logos/clickup.svg

<svg width="62" height="62" viewBox="0 0 62 62" fill="none" xmlns="http://www.w3.org/2000/svg">
<g clip-path="url(#clip0_496_965)">
<path fill-rule="evenodd" clip-rule="evenodd" d="M13.522 42.4154L20.1701 37.3232C23.7004 41.9323 27.4495 44.0564 31.6271 44.0564C35.7816 44.0564 39.4277 41.9568 42.7998 37.3842L49.5394 42.3544C44.6774 48.9473 38.6285 52.4304 31.6271 52.4304C24.6489 52.4304 18.5439 48.9718 13.522 42.4154Z" fill="url(#paint0_linear_496_965)"/>
<path fill-rule="evenodd" clip-rule="evenodd" d="M31.6058 20.2844L19.7734 30.4802L14.307 24.1364L31.6293 9.20996L48.817 24.148L43.3237 30.4686L31.6058 20.2844Z" fill="url(#paint1_linear_496_965)"/>
</g>
<defs>
<linearGradient id="paint0_linear_496_965" x1="13.522" y1="55.1506" x2="49.5394" y2="55.1506" gradientUnits="userSpaceOnUse">
<stop stop-color="#8930FD"/>
<stop offset="1" stop-color="#49CCF9"/>
</linearGradient>
<linearGradient id="paint1_linear_496_965" x1="14.307" y1="34.3101" x2="48.817" y2="34.3101" gradientUnits="userSpaceOnUse">
<stop stop-color="#FF02F0"/>
<stop offset="1" stop-color="#FFC800"/>
</linearGradient>
<clipPath id="clip0_496_965">
<rect width="36.7761" height="44" fill="white" transform="translate(13 9)"/>
</clipPath>
</defs>
</svg>

<svg xmlns="http://www.w3.org/2000/svg" width="62" height="62" fill="none"><g clip-path="url(#C)" fill-rule="evenodd"><path d="M13.522 42.416l6.648-5.092c3.53 4.609 7.279 6.733 11.457 6.733 4.155 0 7.801-2.1 11.173-6.672l6.74 4.97c-4.862 6.593-10.911 10.076-17.912 10.076-6.978 0-13.083-3.459-18.105-10.015z" fill="url(#A)"/><path d="M31.606 20.284L19.773 30.48l-5.466-6.344L31.629 9.21l17.188 14.938-5.493 6.321-11.718-10.184z" fill="url(#B)"/></g><defs><linearGradient id="A" x1="13.522" y1="55.151" x2="49.539" y2="55.151" gradientUnits="userSpaceOnUse"><stop stop-color="#8930fd"/><stop offset="1" stop-color="#49ccf9"/></linearGradient><linearGradient id="B" x1="14.307" y1="34.31" x2="48.817" y2="34.31" gradientUnits="userSpaceOnUse"><stop stop-color="#ff02f0"/><stop offset="1" stop-color="#ffc800"/></linearGradient><clipPath id="C"><path fill="#fff" transform="translate(13 9)" d="M0 0h36.776v44H0z"/></clipPath></defs></svg>
